usr/share/icons/biglinux-icons-material/symbolic/apps/scanner-symbolic.svg

<svg width="16" height="16" version="1.1" xmlns="http://www.w3.org/2000/svg">
 <g fill="#dedede">
  <path d="m5 2h1l-2 5h-1z"/>
  <path d="m6 2h-1l2 5h1z"/>
  <path d="m4.5 5.5h2v-0.5h-2zm-1.5 1h1.5v0.5h-1.5zm3.5 0h1.5v0.5h-1.5z"/>
  <path d="m3 10h9v1h-9zm0 2h9v1h-9z" opacity=".5"/>
  <path d="m4.994 0c-1.258 0.015-2.179-0.03-2.931 0.385a1.88 1.88 0 0 0-0.838 0.998c-0.165 0.437-0.225 0.96-0.225 1.617v10c0 0.658 0.06 1.179 0.225 1.617 0.164 0.439 0.461 0.789 0.838 0.996 0.752 0.415 1.673 0.372 2.931 0.387h5.012c1.258-0.015 2.179 0.03 2.932-0.385a1.88 1.88 0 0 0 0.838-0.998c0.164-0.438 0.224-0.96 0.224-1.617v-10c0-0.658-0.06-1.179-0.225-1.617a1.875 1.875 0 0 0-0.837-0.996c-0.753-0.415-1.674-0.372-2.932-0.387h-5.008zm6e-3 1h5c1.259 0.015 2.09 0.06 2.455 0.262 0.184 0.1 0.287 0.213 0.385 0.472 0.097 0.26 0.16 0.674 0.16 1.266v5h-11v-5c0-0.592 0.063-1.006 0.16-1.266 0.098-0.26 0.202-0.371 0.385-0.472 0.365-0.202 1.195-0.247 2.455-0.262zm-3 8h11v4c0 0.592-0.062 1.006-0.16 1.266s-0.201 0.371-0.385 0.472c-0.366 0.202-1.196 0.247-2.455 0.262h-5c-1.259-0.015-2.09-0.06-2.455-0.262-0.184-0.1-0.287-0.213-0.385-0.472-0.098-0.26-0.16-0.674-0.16-1.266z"/>
 </g>
</svg>

<svg xmlns="http://www.w3.org/2000/svg" width="16" height="16"><g fill="#dedede"><path d="M5 2h1L4 7H3z"/><path d="M6 2H5l2 5h1z"/><path d="M4.5 5.5h2V5h-2zM3 6.5h1.5V7H3zm3.5 0H8V7H6.5z"/><path d="M3 10h9v1H3zm0 2h9v1H3z" opacity=".5"/><path d="M4.994 0C3.736.015 2.815-.03 2.063.385a1.88 1.88 0 0 0-.838.998C1.06 1.82 1 2.343 1 3v10c0 .658.06 1.179.225 1.617.164.439.461.789.838.996.752.415 1.673.372 2.931.387h5.012c1.258-.015 2.179.03 2.932-.385a1.88 1.88 0 0 0 .838-.998c.164-.438.224-.96.224-1.617V3c0-.658-.06-1.179-.225-1.617a1.875 1.875 0 0 0-.837-.996C12.185-.028 11.264.015 10.006 0H4.998zM5 1h5c1.259.015 2.09.06 2.455.262.184.1.287.213.385.472.097.26.16.674.16 1.266v5H2V3c0-.592.063-1.006.16-1.266.098-.26.202-.371.385-.472C2.91 1.06 3.74 1.015 5 1zM2 9h11v4c0 .592-.062 1.006-.16 1.266s-.201.371-.385.472c-.366.202-1.196.247-2.455.262H5c-1.259-.015-2.09-.06-2.455-.262-.184-.1-.287-.213-.385-.472C2.062 14.006 2 13.592 2 13z"/></g></svg>
